X: 21
T: Tatter Jack Walsh
R: jig
M: 6/8
L: 1/8
K: Dmix
|: "D"~f3 ~d3 | "C"cAB c2 A |"D"dcA GFG| Add "A"efg |
"D"~f3 ~d3 | "C"cAB c2 A |"D"dcA GFG | "A"Ad^c "D"d3 :|
|: "D"dfa afd | "(Bm)"dfa agf | "G"g2 a ged | ^cde gfg |
"D"afd fed | "C"cAB c2 ^c | "D"dcA "G"GFG| "A"Ad^c "D"d3 :|

